X:1
T:Title
%%score ( 1 2 ) { 3 | 4 }
L:1/8
Q:1/4=125
M:6/4
K:Ab
V:1 treble nm="Grand Piano, Staff 1"
V:2 treble 
V:3 bass nm="Choir Pad, Hunnys, CM"
V:4 bass 
V:1
 [CF]2 [FA]4 [FB]2 [EG]4 | [EA]2 [DG]4 F2 [C=E]4 | F2 [FB]4 [FA]2 [EA]4 | %3
w: By~Seven~Sobs~of~a~Sorrowful~Soul,~1585 * * *|||
 [EG]2 [EA]4- [EA]4- [EA]3/2 z/ | [EA]2 [FB]4 [GB]2 [Gc]4 | z2 B4 z6 | z6 z2 A2 G2- | G6 z6 |] %8
w: |||||
V:2
 x12 | x12 | x12 | x12 | x12 | F2 =D3 =E [FA]2 [EG]4 | E2 [EA]4 [CF]2 F4 | =E2 F4- F4- F3/2 z/ |] %8
V:3
 A,2 C4 D2 B,4 | A,2 D4 B,2 G,4 | C2 D4 DC B,4 | B,2 C4- C4- C3/2 z/ | C2 D4 D2 C4 | C2 B,4 C2 C4 | %6
 G,2 A,4 C2 D2 G,2- | G,2 A,4- A,4- A,3/2 z/ |] %8
V:4
 F,2 F,4 D,2 E,3 D, | C,2 B,,3 C, D,2 C,4 | A,,2 D,4 B,,2 E,4 | E,2 A,,4- A,,4- A,,3/2 z/ | %4
 A,2 A,3 G, F,2 =E,4 | A,2 G,4 F,2 C,4 | E,2 C,4 A,,2 B,,2 C,2- | C,2 F,,4- F,,4- F,,3/2 z/ |] %8

